X:1
T: Christina
N:
C:
S:
A:
O:
R:
M:4/4
K:F
I:speed 200
%W: A1
% voice 1 (1 lines, 37 notes)
K:F
M:4/4
L:1/16
A2 B2 |c4 c4 d2 c2 B2 d2 |c4 F8 G2 A2 |B4 A4 G4 F4 |E4 c8 A2 B2 |c4 c4 d2 c2 B2 d2 |c4 F8 G2 A2 |B4 A4 G6 A2 |F12 A2 B2 |
%W: A2
% voice 1 (1 lines, 35 notes)
c4 c4 d2 c2 B2 d2 |c4 F8 G2 A2 |B4 A4 G4 F4 |E4 c8 A2 B2 |c4 c4 d2 c2 B2 d2 |c4 F8 G2 A2 |B4 A4 G6 A2 |F12 E2 F2 |
%W: B1
% voice 1 (1 lines, 30 notes)
G4 A4 F4 G4 |A8 A8 |d4 D4 G4 A4 |B12 A2 B2 |c4 d2 e2 f4 e2 d2 |c4 A4 F4 A4 |B4 d4 c4 A4 |G12 E2 F2 |
%W: B2
% voice 1 (1 lines, 28 notes)
G4 A4 F4 G4 |A8 A8 |d4 D4 G4 A4 |B12 A2 B2 |c4 d2 e2 f4 e2 d2 |c4 A4 F4 A4 |B4 d4 c4 E4 |F12 ||
